X: 43172
T: Winyadepla
R: polka
M: 2/4
K: Gmajor
|:G/A/|B2 d>G|B2 B>A|B/c/d- d>G|E2- E>D|
B2 d>G|B2- B>A|Bc dB|1 A3:|2 G3||
|:d/c/|B<G G2|eg d>g|eg dg|B<G G>c|
[1 B<G G2|eg d>g|e/f/g/e/ dB|A3:|
[2 ef g>f|g/f/e dB|A2 B/c/d|A3||

